src/actions/symbolic/route-pedestrian-symbolic.svg

<svg width="16px" height="16px" version="1.1" xmlns="http://www.w3.org/2000/svg">
 <g fill="#363636">
  <path d="m7.5 0a1.5 1.5 0 0 0-1.5 1.5 1.5 1.5 0 0 0 1.5 1.5 1.5 1.5 0 0 0 1.5-1.5 1.5 1.5 0 0 0-1.5-1.5zm0 1a0.5 0.5 0 0 1 0.5 0.5 0.5 0.5 0 0 1-0.5 0.5 0.5 0.5 0 0 1-0.5-0.5 0.5 0.5 0 0 1 0.5-0.5z" color="#000000"/>
  <path d="m6 4a0.50005 0.50005 0 0 0-0.44727 0.27734l-1 2a0.50005 0.50005 0 0 0-0.027344 0.064453l-1 3a0.5 0.5 0 0 0 0.31641 0.63281 0.5 0.5 0 0 0 0.63281-0.31641l0.98828-2.9668 0.8457-1.6914h2.4844l3.8535 3.8535a0.5 0.5 0 0 0 0.70703 0 0.5 0.5 0 0 0 0-0.70703l-4-4a0.50005 0.50005 0 0 0-0.35352-0.14648z" color="#000000" stroke-linecap="round" stroke-linejoin="round"/>
  <path d="m7.686 8.3514c-0.12856-0.03276-0.26486-0.013087-0.37891 0.054687-0.23784 0.14199-0.31491 0.45029-0.17188 0.6875l3.9351 6.1642c0.14199 0.23784 0.45029 0.31491 0.6875 0.17188 0.23784-0.14199 0.31491-0.45029 0.17188-0.6875l-3.9351-6.1642c-0.068734-0.11347-0.17975-0.19497-0.30859-0.22656z" color="#000000" stroke-linecap="round" stroke-linejoin="round"/>
  <path d="m7.5 4.5c-0.27614 0-0.5 0.22386-0.5 0.5v7l-2 2.293c-0.19521 0.19525-0.19521 0.51178 0 0.70703 0.19525 0.19521 0.51178 0.19521 0.70703 0l2.1465-2.4395c0.093768-0.093756 0.14646-0.22092 0.14648-0.35352v-7.207c0-0.27614-0.22386-0.5-0.5-0.5z" color="#000000" stroke-linecap="round" stroke-linejoin="round"/>
 </g>
</svg>

<svg xmlns="http://www.w3.org/2000/svg" width="16" height="16">
    <g fill="#050505" color="#000" opacity=".7">
        <path d="M7.5 0A1.5 1.5 0 0 0 6 1.5 1.5 1.5 0 0 0 7.5 3 1.5 1.5 0 0 0 9 1.5 1.5 1.5 0 0 0 7.5 0zm0 1a.5.5 0 0 1 .5.5.5.5 0 0 1-.5.5.5.5 0 0 1-.5-.5.5.5 0 0 1 .5-.5zM6 4a.5.5 0 0 0-.447.277l-1 2a.5.5 0 0 0-.028.065l-1 3a.5.5 0 0 0 .317.633.5.5 0 0 0 .633-.317l.988-2.967L6.309 5h2.484l3.853 3.853a.5.5 0 0 0 .708 0 .5.5 0 0 0 0-.707l-4-4A.5.5 0 0 0 9 4z"/>
        <path d="M7.686 8.351a.5.5 0 0 0-.55.743l3.934 6.164a.5.5 0 1 0 .86-.516L7.995 8.578a.5.5 0 0 0-.309-.227z"/>
        <path d="M7.5 4.5A.5.5 0 0 0 7 5v7l-2 2.293a.5.5 0 0 0 .707.707l2.147-2.44A.5.5 0 0 0 8 12.208V5a.5.5 0 0 0-.5-.5z"/>
    </g>
</svg>
